SVG_Azure_Grouped/Management/Azure Automation Runbook Job.svg

<?xml version="1.0" encoding="UTF-8" standalone="no"?>
<!-- Generated by Microsoft Visio, SVG Export Azure Automation Runbook Job.svg Page-1 -->

<svg
   xmlns:dc="http://purl.org/dc/elements/1.1/"
   xmlns:cc="http://creativecommons.org/ns#"
   xmlns:rdf="http://www.w3.org/1999/02/22-rdf-syntax-ns#"
   xmlns:svg="http://www.w3.org/2000/svg"
   xmlns="http://www.w3.org/2000/svg"
   xmlns:sodipodi="http://sodipodi.sourceforge.net/DTD/sodipodi-0.dtd"
   xmlns:inkscape="http://www.inkscape.org/namespaces/inkscape"
   width="0.78735709in"
   height="0.78735709in"
   viewBox="0 0 56.689778 56.689998"
   xml:space="preserve"
   class="st6"
   version="1.1"
   id="svg39"
   sodipodi:docname="Azure Automation Runbook Job.svg"
   style="font-size:12px;overflow:visible;color-interpolation-filters:sRGB;fill:none;fill-rule:evenodd;stroke-linecap:square;stroke-miterlimit:3"
   inkscape:version="0.92.5 (2060ec1f9f, 2020-04-08)"><metadata
   id="metadata45"><rdf:RDF><cc:Work
       rdf:about=""><dc:format>image/svg+xml</dc:format><dc:type
         rdf:resource="http://purl.org/dc/dcmitype/StillImage" /></cc:Work></rdf:RDF></metadata><defs
   id="defs43" /><sodipodi:namedview
   pagecolor="#ffffff"
   bordercolor="#666666"
   borderopacity="1"
   objecttolerance="10"
   gridtolerance="10"
   guidetolerance="10"
   inkscape:pageopacity="0"
   inkscape:pageshadow="2"
   inkscape:window-width="640"
   inkscape:window-height="480"
   id="namedview41"
   showgrid="false"
   inkscape:zoom="1.7193066"
   inkscape:cx="37.795072"
   inkscape:cy="23.279613"
   inkscape:window-x="0"
   inkscape:window-y="0"
   inkscape:window-maximized="0"
   inkscape:current-layer="svg39" />
	<style
   type="text/css"
   id="style2">
	<![CDATA[
		.st1 {fill:#59b4d9;stroke:none;stroke-linecap:butt;stroke-width:12.24}
		.st2 {fill:#ffffff;fill-opacity:0.9;stroke:none;stroke-linecap:butt;stroke-width:12.24}
		.st3 {fill:#3999c6;stroke:none;stroke-linecap:butt;stroke-width:12.24}
		.st4 {fill:#57a300;stroke:none;stroke-linecap:butt;stroke-width:12.24}
		.st5 {fill:#0072c6;stroke:none;stroke-linecap:butt;stroke-width:12.24}
		.st6 {fill:none;fill-rule:evenodd;font-size:12px;overflow:visible;stroke-linecap:square;stroke-miterlimit:3}
	]]>
	</style>

	<g
   id="g37"
   transform="translate(-12.24016,-12.2443)">
		<title
   id="title4">Page-1</title>
		<g
   id="group12899-1"
   transform="translate(12.24,-34.0157)">
			<title
   id="title6">Azure Automation Runbook Job.12899</title>
			<g
   id="group12900-2">
				<title
   id="title8">Sheet.12900</title>
				<g
   id="shape12901-3">
					<title
   id="title10">Sheet.12901</title>
					<path
   d="M 53.29,102.95 H 3.4 C 1.52,102.95 0,101.43 0,99.55 V 49.66 c 0,-1.88 1.52,-3.4 3.4,-3.4 h 49.89 c 1.88,0 3.4,1.52 3.4,3.4 v 49.89 c 0,1.88 -1.52,3.4 -3.4,3.4 z"
   class="st1"
   id="path12"
   inkscape:connector-curvature="0"
   style="fill:#59b4d9;stroke:none;stroke-width:12.23999977;stroke-linecap:butt" />
				</g>
				<g
   id="shape12902-5"
   transform="translate(3.40157,-3.40157)">
					<title
   id="title15">Sheet.12902</title>
					<rect
   x="0"
   y="53.058899"
   width="49.889801"
   height="49.889801"
   class="st2"
   id="rect17"
   style="fill:#ffffff;fill-opacity:0.9;stroke:none;stroke-width:12.23999977;stroke-linecap:butt" />
				</g>
				<g
   id="shape12903-7"
   transform="translate(7.93701,-9.07087)">
					<title
   id="title20">Sheet.12903</title>
					<path
   d="M 13.63,87.07 H 2.25 C 1.01,87.07 0,88.08 0,89.32 v 11.39 c 0,1.23 1.01,2.24 2.25,2.24 h 11.39 c 1.24,0 2.25,-1.01 2.25,-2.25 V 89.32 a 2.26772,2.26772 -180 0 0 -2.26,-2.25 z m 0,-22.67 H 2.25 C 1.01,64.4 0,65.41 0,66.64 v 11.4 c 0,1.22 1.01,2.23 2.25,2.23 h 11.39 c 1.24,0 2.25,-1.01 2.25,-2.24 V 66.64 A 2.26772,2.26772 -180 0 0 13.63,64.4 Z"
   class="st3"
   id="path22"
   inkscape:connector-curvature="0"
   style="fill:#3999c6;stroke:none;stroke-width:12.23999977;stroke-linecap:butt" />
				</g>
				<g
   id="shape12904-9"
   transform="translate(30.3874,-31.9255)">
					<title
   id="title25">Sheet.12904</title>
					<path
   d="M 0.76,95.9 0.16,95.26 A 0.644031,0.644031 0 0 1 0.00126,94.840472 C 0.01,94.69 0.08,94.54 0.19,94.44 l 1.74,-1.6 c 0.11,-0.1 0.25,-0.16 0.38,-0.16 0.16,0 0.32,0.07 0.42,0.2 l 4.64,4.97 8.08,-10.36 c 0.12,-0.14 0.28,-0.23 0.46,-0.23 0.13,0 0.25,0.05 0.35,0.13 l 1.87,1.44 c 0.13,0.09 0.19,0.21 0.23,0.37 a 0.578268,0.578268 0 0 1 -0.124724,0.430866 L 7.99,102.74 a 0.544252,0.544252 0 0 1 -0.827717,0.034 z"
   class="st4"
   id="path27"
   inkscape:connector-curvature="0"
   style="fill:#57a300;stroke:none;stroke-width:12.23999977;stroke-linecap:butt" />
				</g>
				<g
   id="shape12905-11"
   transform="translate(31.68,-9.00283)">
					<title
   id="title30">Sheet.12905</title>
					<path
   d="m 16.01,89.34 -2.4,-2.4 -5.6,5.6 -5.61,-5.6 -2.4,2.4 5.6,5.6 -5.6,5.6 2.4,2.41 5.61,-5.6 5.6,5.6 2.4,-2.41 -5.6,-5.6 z"
   class="st5"
   id="path32"
   inkscape:connector-curvature="0"
   style="fill:#0072c6;stroke:none;stroke-width:12.23999977;stroke-linecap:butt" />
				</g>
			</g>
		</g>
	</g>
</svg>

<?xml version="1.0" encoding="UTF-8" standalone="no"?>
<!DOCTYPE svg PUBLIC "-//W3C//DTD SVG 1.1//EN" "http://www.w3.org/Graphics/SVG/1.1/DTD/svg11.dtd">
<!-- Generated by Microsoft Visio, SVG Export Azure Automation Runbook Job.svg Page-1 -->
<svg xmlns="http://www.w3.org/2000/svg" xmlns:xlink="http://www.w3.org/1999/xlink" xmlns:ev="http://www.w3.org/2001/xml-events"
		width="1.1274in" height="1.42984in" viewBox="0 0 81.1729 102.949" xml:space="preserve" color-interpolation-filters="sRGB"
		class="st6">
	<style type="text/css">
	<![CDATA[
		.st1 {fill:#59b4d9;stroke:none;stroke-linecap:butt;stroke-width:12.24}
		.st2 {fill:#ffffff;fill-opacity:0.9;stroke:none;stroke-linecap:butt;stroke-width:12.24}
		.st3 {fill:#3999c6;stroke:none;stroke-linecap:butt;stroke-width:12.24}
		.st4 {fill:#57a300;stroke:none;stroke-linecap:butt;stroke-width:12.24}
		.st5 {fill:#0072c6;stroke:none;stroke-linecap:butt;stroke-width:12.24}
		.st6 {fill:none;fill-rule:evenodd;font-size:12px;overflow:visible;stroke-linecap:square;stroke-miterlimit:3}
	]]>
	</style>

	<g>
		<title>Page-1</title>
		<g id="group12606-1" transform="translate(12.24,-34.0157)">
			<title>Azure Automation Runbook Job.12606</title>
			<g id="group12607-2">
				<title>Sheet.12607</title>
				<g id="shape12608-3">
					<title>Sheet.12608</title>
					<path d="M53.29 102.95 L3.4 102.95 C1.52 102.95 0 101.43 0 99.55 L0 49.66 C0 47.78 1.52 46.26 3.4 46.26 L53.29
								 46.26 C55.17 46.26 56.69 47.78 56.69 49.66 L56.69 99.55 C56.69 101.43 55.17 102.95 53.29 102.95
								 Z" class="st1"/>
				</g>
				<g id="shape12609-5" transform="translate(3.40157,-3.40157)">
					<title>Sheet.12609</title>
					<rect x="0" y="53.0589" width="49.8898" height="49.8898" class="st2"/>
				</g>
				<g id="shape12610-7" transform="translate(7.93701,-9.07087)">
					<title>Sheet.12610</title>
					<path d="M13.63 87.07 L2.25 87.07 C1.01 87.07 0 88.08 0 89.32 L0 100.71 C0 101.94 1.01 102.95 2.25 102.95 L13.64
								 102.95 C14.88 102.95 15.89 101.94 15.89 100.7 L15.89 89.32 A2.26772 2.26772 -180 0 0 13.63 87.07
								 ZM13.63 64.4 L2.25 64.4 C1.01 64.4 0 65.41 0 66.64 L0 78.04 C0 79.26 1.01 80.27 2.25 80.27 L13.64
								 80.27 C14.88 80.27 15.89 79.26 15.89 78.03 L15.89 66.64 A2.26772 2.26772 -180 0 0 13.63 64.4 Z"
							class="st3"/>
				</g>
				<g id="shape12611-9" transform="translate(30.3874,-31.9255)">
					<title>Sheet.12611</title>
					<path d="M0.76 95.9 L0.16 95.26 a0.644031 0.644031 0 0 1 -0.15874 -0.419528 C0.01 94.69 0.08 94.54 0.19 94.44
								 L1.93 92.84 C2.04 92.74 2.18 92.68 2.31 92.68 C2.47 92.68 2.63 92.75 2.73 92.88 L7.37 97.85 L15.45
								 87.49 C15.57 87.35 15.73 87.26 15.91 87.26 C16.04 87.26 16.16 87.31 16.26 87.39 L18.13 88.83 C18.26
								 88.92 18.32 89.04 18.36 89.2 a0.578268 0.578268 0 0 1 -0.124724 0.430866 L7.99 102.74 a0.544252
								 0.544252 0 0 1 -0.827717 0.0340157 L0.76 95.9 Z" class="st4"/>
				</g>
				<g id="shape12612-11" transform="translate(31.68,-9.00283)">
					<title>Sheet.12612</title>
					<path d="M16.01 89.34 L13.61 86.94 L8.01 92.54 L2.4 86.94 L0 89.34 L5.6 94.94 L0 100.54 L2.4 102.95 L8.01 97.35
								 L13.61 102.95 L16.01 100.54 L10.41 94.94 L16.01 89.34 Z" class="st5"/>
				</g>
			</g>
		</g>
	</g>
</svg>
